X: 12050
T: Eroticon VI
R: reel
M: 4/4
K: Adorian
|:~a3g edcA|~d3c dege|gaag edce|dege ea z2|
~a3g edcA|~d3c dege|eaag edce|1 dcAG Acde:|2 dcAG AGED||
~E3A AGED|EAAE AGED|E~A3 B ~A3|c ~A3 dAe2|
z2 AA AGED|~E3A AGED|(3EFG FA ~G3D|e3g dcAG|
~E3A zGED|EAAE AGED|E~A3 B ~A3|c ~A3 dA (3Bcd|
e z2d cA d2-|d3A BAGA|B2BB c3A|~d3c dege||

